X: 249
T: Qu Qiucai
L: 1/8
M: 2/4
K: G
GG2A [I:setbarnb 1]| 
d g e d | 
e d B A | 
G2e d | 
GG2A | 
d> g e d | 
e d B A | 
G4 | 
d d g B | 
A3B | 
d d A d | 
B AG2 | 
G E G A | 
d d A G | 
G E D B, | 
D G, D A, | 
G,4 |]

@@@ Tune index: 9123
